X: 3435
T: Bethany's
R: waltz
M: 3/4
K: Gmajor
|:"G"d3 c BA|"Em"~B2G3 G|"Am"FG AD FG|"D"AG AB "D7"AB|
"G"d3 c BA|"Em"~B2G3 G|"D"FG AD "D7"FA|"G"G3 A Bc:|
|:"C"d2 g3 f|"G"g2 d3 d|"Am"cB AG FE|"D7"DE FG AB|
"C"d2 g3 f|"G"g2 d3 d|"D"cB AG "D7"FA|1 "G"G3 A Bc:|2 "G"G6||
|:"Am"A3 B cA|"Bm"B3 c dB|"C"c3 d ec|"G"dg fg dB|
"D7/F#"A3 B cA|"G"B3 c dB|"C"c2 "G"B3 G|"D"FG "D7"AF "G"G2:|

